packages/foundations/assets/icons/functional/images/social/heart_28_filled.svg

<svg width="28" height="28" viewBox="0 0 28 28" fill="none" xmlns="http://www.w3.org/2000/svg">
<g clip-path="url(#clip0_2214_6219)">
<path fill-rule="evenodd" clip-rule="evenodd" d="M13.9727 24.3906C13.754 24.3906 13.5352 24.3085 13.371 24.1446L3.63667 14.6835C2.35156 13.4531 1.75 11.7578 1.75 10.1172C1.75 6.48042 4.70312 3.60938 8.20312 3.60938C9.87105 3.60938 11.5391 4.26562 12.7969 5.52344L13.9727 6.69917L15.1484 5.52344C16.4062 4.26562 18.0742 3.60938 19.7696 3.60938C23.3242 3.60938 26.25 6.48042 26.25 10.0625C26.25 11.7031 25.6758 13.371 24.3085 14.6835L14.6016 24.1446C14.4375 24.3085 14.1915 24.3906 13.9727 24.3906Z" fill="#1A1C1F"/>
</g>
<defs>
<clipPath id="clip0_2214_6219">
<rect width="28" height="28" fill="white"/>
</clipPath>
</defs>
</svg>

<svg xmlns="http://www.w3.org/2000/svg" width="28" height="28" fill="none"><g clip-path="url(#a)"><path fill="#1A1C1F" fill-rule="evenodd" d="M13.973 24.39a.85.85 0 0 1-.602-.245l-9.734-9.461c-1.285-1.23-1.887-2.926-1.887-4.567 0-3.637 2.953-6.508 6.453-6.508 1.668 0 3.336.657 4.594 1.914L13.973 6.7l1.175-1.176A6.52 6.52 0 0 1 19.77 3.61c3.554 0 6.48 2.871 6.48 6.454 0 1.64-.574 3.308-1.942 4.62l-9.706 9.462a.91.91 0 0 1-.63.246" clip-rule="evenodd"/></g><defs><clipPath id="a"><path fill="#fff" d="M0 0h28v28H0z"/></clipPath></defs></svg>
